X: 1
T:Michael Turner's Waltz
R:waltz
O:England
M:3/4
K:C
cd|\
"C"e2 eG fG|"C/E"g2g2 c'b|"F"a2a2 c'a|"C"g2g2 cd|\
"C"e2eG fG|"C"g2g2 fd|"F"c2ce "G"dB|"C"c4d:|
|:de|\
"F"f2 fg ef|"G"d4 ef|"C"g2 ga fg|"Am"e2 e2 c'b|\
"F"a2 a2 c'a|"C"g2g2 cd|"Am"e2ef "G"ed|"C"c4:|
